packages/vapor/resources/icons/svg/source-liferay.svg

<?xml version="1.0" encoding="UTF-8" standalone="no"?>
<svg width="32px" height="32px" viewBox="0 0 32 32" version="1.1" xmlns="http://www.w3.org/2000/svg" xmlns:xlink="http://www.w3.org/1999/xlink" xmlns:sketch="http://www.bohemiancoding.com/sketch/ns">
    <!-- Generator: Sketch 3.2.2 (9983) - http://www.bohemiancoding.com/sketch -->
    <title>Liferay</title>
    <desc>Created with Sketch.</desc>
    <defs>
        <rect id="path-1" x="0" y="0" width="32" height="32" rx="2"></rect>
    </defs>
    <g id="Sources-Icons-32px" stroke="none" stroke-width="1" fill="none" fill-rule="evenodd" sketch:type="MSPage">
        <g id="Liferay" sketch:type="MSArtboardGroup">
            <g id="source-liferay" sketch:type="MSLayerGroup">
                <mask id="mask-2" sketch:name="BG" fill="white">
                    <use xlink:href="#path-1"></use>
                </mask>
                <use id="BG" fill="#F6F6F6" sketch:type="MSShapeGroup" xlink:href="#path-1"></use>
                <g id="liferay" mask="url(#mask-2)" sketch:type="MSShapeGroup">
                    <g transform="translate(6.000000, 6.000000)">
                        <path d="M10.3843077,0.064 L14.6904615,0.064 L14.6904615,4.37138462 L10.3843077,4.37138462 L10.3843077,0.064 Z" id="Fill-4" fill="#76AAD0"></path>
                        <path d="M4.32923077,4.37138462 L0.0230769231,4.37138462 L0.0230769231,0.064 L4.32953846,0.064 L4.32923077,4.37138462" id="Fill-5" fill="#0D1929"></path>
                        <path d="M0.0227692308,5.23107692 L4.32892308,5.23107692 L4.32892308,9.53784615 L0.0227692308,9.53784615 L0.0227692308,5.23107692 Z" id="Fill-6" fill="#213156"></path>
                        <path d="M0.0227692308,10.3978462 L4.32892308,10.3978462 L4.32892308,14.7046154 L0.0227692308,14.7046154 L0.0227692308,10.3978462 Z" id="Fill-7" fill="#76AAD0"></path>
                        <path d="M5.20307692,0.064 L9.50953846,0.064 L9.50953846,4.37138462 L5.20307692,4.37138462 L5.20307692,0.064 Z" id="Fill-11" fill="#213156"></path>
                        <path d="M5.20307692,5.23107692 L9.50953846,5.23107692 L9.50953846,9.53784615 L5.20307692,9.53784615 L5.20307692,5.23107692 Z" id="Fill-12" fill="#76AAD0"></path>
                        <path d="M5.20307692,15.564 L9.50953846,15.564 L9.50953846,19.8695385 L5.20307692,19.8695385 L5.20307692,15.564 Z" id="Fill-16" fill="#76AAD0"></path>
                        <path d="M10.3843077,10.3978462 L14.6904615,10.3978462 L14.6904615,14.7046154 L10.3843077,14.7046154 L10.3843077,10.3978462 Z" id="Fill-23" fill="#76AAD0"></path>
                        <path d="M10.3843077,15.564 L14.6904615,15.564 L14.6904615,19.8695385 L10.3843077,19.8695385 L10.3843077,15.564 Z" id="Fill-27" fill="#213156"></path>
                        <path d="M15.5655385,5.23107692 L19.8713846,5.23107692 L19.8713846,9.53784615 L15.5655385,9.53784615 L15.5655385,5.23107692 Z" id="Fill-28" fill="#76AAD0"></path>
                        <path d="M15.5655385,10.3978462 L19.8713846,10.3978462 L19.8713846,14.7046154 L15.5655385,14.7046154 L15.5655385,10.3978462 Z" id="Fill-32" fill="#213156"></path>
                        <path d="M15.5655385,15.564 L19.8713846,15.564 L19.8713846,19.8695385 L15.5655385,19.8695385 L15.5655385,15.564 Z" id="Fill-33" fill="#0D1929"></path>
                    </g>
                </g>
                <path d="M29,0 L8,32 L32,32 L32,0 L29,0 Z" id="shadow" opacity="0.102203825" fill="#000000" sketch:type="MSShapeGroup" mask="url(#mask-2)"></path>
            </g>
        </g>
    </g>
</svg>

<svg xmlns="http://www.w3.org/2000/svg" viewBox="0 0 32 32" enable-background="new 0 0 32 32">
  <g transform="translate(6 6)">
    <path fill="#76aad0" d="m10.4.1h4.3v4.3h-4.3v-4.3"/>
    <path fill="#0d1929" d="M4.3,4.4H0V0.1h4.3V4.4"/>
    <path fill="#213156" d="M0,5.2h4.3v4.3H0V5.2z"/>
    <path fill="#76aad0" d="M0,10.4h4.3v4.3H0V10.4z"/>
    <path fill="#213156" d="m5.2.1h4.3v4.3h-4.3v-4.3"/>
    <g fill="#76aad0">
      <path d="M5.2,5.2h4.3v4.3H5.2V5.2z"/>
      <path d="m5.2 15.6h4.3v4.3h-4.3v-4.3"/>
      <path d="m10.4 10.4h4.3v4.3h-4.3v-4.3"/>
    </g>
    <path fill="#213156" d="m10.4 15.6h4.3v4.3h-4.3v-4.3"/>
    <path fill="#76aad0" d="m15.6 5.2h4.3v4.3h-4.3v-4.3"/>
    <path fill="#213156" d="m15.6 10.4h4.3v4.3h-4.3v-4.3"/>
    <path fill="#0d1929" d="m15.6 15.6h4.3v4.3h-4.3v-4.3"/>
  </g>
  <path fill="#bcc3ca" d="m30 2v28h-28v-28h28m0-2h-28c-1.1 0-2 .9-2 2v28c0 1.1.9 2 2 2h28c1.1 0 2-.9 2-2v-28c0-1.1-.9-2-2-2z"/>
</svg>
